!!!COM: Ockeghem, Johannes
!!!CDT: ~1425-1497/02/06
!!!OTL: Tant fuz gentement
!!!AGN: Song; Chanson
!!!SCT: Ock3021
!!!SCA: Ock3021
!!!voices: 3
**kern	**text	**text	**kern	**text	**text	**kern	**text	**text
*staff3	*staff3	*staff3	*staff2	*staff2	*staff2	*staff1	*staff1	*staff1
*Ivox	*	*	*Ivox	*	*	*Ivox	*	*
*I"Contra	*	*	*I"Tenor	*	*	*I"Discantus	*	*
*I'C	*	*	*I'T	*	*	*I'D	*	*
*>[A,B]	*>[A,B]	*>[A,B]	*>[A,B]	*>[A,B]	*>[A,B]	*>[A,B]	*>[A,B]	*>[A,B]
*>A	*>A	*>A	*>A	*>A	*>A	*>A	*>A	*>A
*clefGv2	*	*	*clefGv2	*	*	*clefG2	*	*
*k[]	*	*	*k[]	*	*	*k[]	*	*
*M2/1	*	*	*M2/1	*	*	*M2/1	*	*
*met(C)	*	*	*met(C)	*	*	*met(C)	*	*
*MM296	*	*	*MM296	*	*	*MM296	*	*
=1-	=1-	=1-	=1-	=1-	=1-	=1-	=1-	=1-
!!!OMD: Virelai
1A	Tant	Mon	1D	Tant	Mon	1d	Tant	Mon
[1c	fuz	le-	[1A	fuz	le-	[1e	fuz	le-
=2	=2	=2	=2	=2	=2	=2	=2	=2
1c]	.	.	1A]	.	.	1e]	.	.
1c	gen-	-al	1A	gen-	-al	1e	gen-	-al
=3	=3	=3	=3	=3	=3	=3	=3	=3
1c	-te-	cuer	1A	-te-	cuer	1.f	-te-	cuer
[1c	-ment	de	[1A	-ment	de	.	.	.
.	.	.	.	.	.	2g/	.	.
=4	=4	=4	=4	=4	=4	=4	=4	=4
1c]	.	.	1A]	.	.	1a	-ment	.
1d	res-	dueil	1B	res-	dueil	1g	res-	de
=5	=5	=5	=5	=5	=5	=5	=5	=5
0A	-jou-	ner-	0c	-jou-	ner-	2f/	-jou-	dueil
.	.	.	.	.	.	2d/	.	.
.	.	.	.	.	.	1e	.	ner-
=6	=6	=6	=6	=6	=6	=6	=6	=6
0D	-y	-cy,	[0d	-y	-cy,	0d	-y	-cy,
=7	=7	=7	=7	=7	=7	=7	=7	=7
1G	Et	Taint	0d]	.	.	1r	.	.
1F	tant	en	.	.	.	1d	Et	Taint
=8	=8	=8	=8	=8	=8	=8	=8	=8
[0D	fuz	des-	1r	.	.	1f	tant	en
.	.	.	1d	Et	Taint	1f	fuz	des-
=9	=9	=9	=9	=9	=9	=9	=9	=9
0D]	par	-es-	1f	tant	en	1a	par	-es-
.	.	.	1f	fuz	des-	1a	a-	-pe-
=10	=10	=10	=10	=10	=10	=10	=10	=10
0G	a-	-pe-	1e	par	-es-	1.g	-mours	-r&eacute;
.	.	.	1d	a-	-pe-	.	.	.
.	.	.	.	.	.	2f/	.	.
=11	=11	=11	=11	=11	=11	=11	=11	=11
0A	-mours	-r&eacute;	0c	-mours	-r&eacute;	0e	jou-	sou-
=12	=12	=12	=12	=12	=12	=12	=12	=12
1r	.	.	0d	jou-	sou-	1.f	-y	-cy
1B-i	jou-	sou-	.	.	.	.	.	.
.	.	.	.	.	.	4e/	.	.
.	.	.	.	.	.	4d/	.	.
=13	=13	=13	=13	=13	=13	=13	=13	=13
1A	-y	-cy	1e	-y	-cy	1c	.	.
[1F	Me	A-	1A	Me	A-	1c	Me	A-
=14	=14	=14	=14	=14	=14	=14	=14	=14
2F/]	.	.	1B	te-	-loing	1d	te-	-loing
2G/	te-	-loing	.	.	.	.	.	.
1E	-nir	de	1c	-nir	de	1e	-nir	de
=15	=15	=15	=15	=15	=15	=15	=15	=15
0D	.	.	1.d	au	tou-	1f	au	tou-
.	.	.	.	.	.	[1f	vueil	-te
.	.	.	2c\	.	.	.	.	.
=16	=16	=16	=16	=16	=16	=16	=16	=16
1r	.	.	1A	vueil	-te	1f]	.	.
1C	da-	joy-	1G	da-	joy-	[1e	da-	joy-
=17	=17	=17	=17	=17	=17	=17	=17	=17
0D	-vant	-e'es-	0F	-vant	-e'es-	2e/]	.	.
.	.	.	.	.	.	4d/	.	.
.	.	.	.	.	.	4c/	.	.
.	.	.	.	.	.	1d	-vant	-e'es-
=18	=18	=18	=18	=18	=18	=18	=18	=18
0AA	tous	-coux	[0E	tous	-coux	0e	tous	-coux
=19	=19	=19	=19	=19	=19	=19	=19	=19
1.C	De	M'a-	0E]	.	.	0r	.	.
2D/	.	.	.	.	.	.	.	.
=20	=20	=20	=20	=20	=20	=20	=20	=20
1.E	vos-	-vez	0r	.	.	0g	De	M'a-
2F/	.	.	.	.	.	.	.	.
=21	=21	=21	=21	=21	=21	=21	=21	=21
1.G	-tre	com-	0E	De	M'a-	1g	vos-	-vez
.	.	.	.	.	.	1g	-tre	com-
2A/	.	.	.	.	.	.	.	.
=22	=22	=22	=22	=22	=22	=22	=22	=22
1B	gen-	-me'a-	1E	vos-	-vez	1g	gen-	-me'a-
1A	-til	-for-	1F	-tre	com-	1a	-til	-for-
=23	=23	=23	=23	=23	=23	=23	=23	=23
1G	cuer	-ce	1G	gen-	-me'a-	1b	cuer	-ce
[1F	.	.	1A	-til	-for-	[1cc	.	.
=24	=24	=24	=24	=24	=24	=24	=24	=24
1F]	.	.	0c	cuer	-ce	2cc\]	.	.
.	.	.	.	.	.	2a/	.	.
1A	tres-	res-	.	.	.	[1a	tres-	res-
=25	=25	=25	=25	=25	=25	=25	=25	=25
0E	.	.	0B	tres-	res-	1a]	.	.
.	.	.	.	.	.	1g#i	.	.
=26	=26	=26	=26	=26	=26	=26	=26	=26
1.F	-doulx,	-coux	0A	-doulx,	-coux	0a	-doulx,	-coux
4G/	.	.	.	.	.	.	.	.
4A/	.	.	.	.	.	.	.	.
=27	=27	=27	=27	=27	=27	=27	=27	=27
1B-i	.	.	1G	.	.	1r	.	.
1A	.	.	1F	.	.	1d	Qu'on-	De
=28	=28	=28	=28	=28	=28	=28	=28	=28
1r	.	.	0E	.	.	1c	-cques	mort
1G	Qu'on-	De	.	.	.	1c	puis	dont
=29	=29	=29	=29	=29	=29	=29	=29	=29
1F	-cques	mort	1r	.	.	0d	sur	sans
[1A	puis	dont	1D	Qu'on-	De	.	.	.
=30	=30	=30	=30	=30	=30	=30	=30	=30
2A/]	.	.	1C	-cques	mort	0e	moy	nul-
2G/	.	.	.	.	.	.	.	.
1E	sur	sans	1C	puis	dont	.	.	.
=31	=31	=31	=31	=31	=31	=31	=31	=31
1A	moy	nul-	0D	sur	sans	1.f	ne	-le
1B-i	.	.	.	.	.	.	.	.
.	.	.	.	.	.	4e/	.	.
.	.	.	.	.	.	4d/	.	.
=32	=32	=32	=32	=32	=32	=32	=32	=32
1G	ne	-le	1E	moy	nul-	1c	.	.
[1A	jou-	mer-	1D	ne	-le	2f/	jou-	mer-
.	.	.	.	.	.	2g/	.	.
=33	=33	=33	=33	=33	=33	=33	=33	=33
2A/]	.	.	2F/	jou-	mer-	2a/	.	.
2B\	.	.	2G/	.	.	1g	-y	-cy
1c	.	.	1A	.	.	.	.	.
.	.	.	.	.	.	2f/	.	.
=34	=34	=34	=34	=34	=34	=34	=34	=34
2B\	-y	-cy	2G/	-y	-cy	2e/	.	.
2A/	.	.	2F/	.	.	2d/	.	.
1G	.	.	1E	.	.	1c	.	.
=35	=35	=35	=35	=35	=35	=35	=35	=35
1A	Le	Ac-	1r	.	.	0f	Le	Ac-
1F	.	.	1A	Le	Ac-	.	.	.
=36	=36	=36	=36	=36	=36	=36	=36	=36
1.G	mien	-ten-	1B-i	mien	-ten-	1.d	mien	-ten-
.	.	.	1G	tres-	-doye	.	.	.
4F/	tres-	-doye	.	.	.	2e/	tres-	-doye
4E/	.	.	.	.	.	.	.	.
=37	=37	=37	=37	=37	=37	=37	=37	=37
1D	-dou-	les	1F	-dou-	les	1f	-dou-	les
[1C	-lou-	dan-	1G	-lou-	dan-	[1e	-lou-	dan-
=38	=38	=38	=38	=38	=38	=38	=38	=38
1C]	.	.	0B-i	-reux	-ge-	1e]	.	.
1D	-reux	-ge-	.	.	.	[1d	-reux	-ge-
=39	=39	=39	=39	=39	=39	=39	=39	=39
1.F	cour-	-reux	0A	cour-	-reux	2d/]	.	.
.	.	.	.	.	.	2B/	.	.
.	.	.	.	.	.	1c#i	cour-	-reux
2G/	.	.	.	.	.	.	.	.
=40	=40	=40	=40	=40	=40	=40	=40	=40
0B-i	-roux.	.	[0Dl	-roux.	coupx.	[0dl	-roux.	coupx.
=41	=41	=41	=41	=41	=41	=41	=41	=41
0Al	.	coupx.	0D]	.	.	0d]	.	.
!!LO:LB:i:g=z
=42||!|:	=42||!|:	=42||!|:	=42||!|:	=42||!|:	=42||!|:	=42||!|:	=42||!|:	=42||!|:
*>B	*>B	*>B	*>B	*>B	*>B	*>B	*>B	*>B
!!*clefGv2	*	*	*clefGv2	*	*	*clefG2	*	*
!!*k[]	*	*	*k[]	*	*	*k[]	*	*
*M2/1	*	*	*M2/1	*	*	*M2/1	*	*
*met(C|)	*	*	*met(C|)	*	*	*met(C|)	*	*
*MM384	*	*	*MM384	*	*	*MM384	*	*
!!!OMD: Si haultement
!!section: Si haultement
0D	Si	Par	0d	Si	Par	1.a	Si	Par
.	.	.	.	.	.	2b\	.	.
=43	=43	=43	=43	=43	=43	=43	=43	=43
1A	haul-	cy	1e	haul-	cy	1cc	haul-	cy
1A	-te-	tres	1e	-te-	tres	1cc	-te-	tres
=44	=44	=44	=44	=44	=44	=44	=44	=44
1D	-ment	gra-	1f	-ment	gra-	1dd	-ment	gra-
1D	a-	-ci-	1f	a-	-ci-	1dd	a-	-ci-
=45	=45	=45	=45	=45	=45	=45	=45	=45
1.F	-vez	-eux	1.f	-vez	-eux,	1.dd	-vez	-eux
2G/	.	.	4e\	.	.	2cc\	.	.
.	.	.	4d\	.	.	.	.	.
=46	=46	=46	=46	=46	=46	=46	=46	=46
1A	.	.	1c	.	.	1a	.	.
1B	par-	par-	1d	par-	tres	1a	par-	par-
=47	=47	=47	=47	=47	=47	=47	=47	=47
0c	-ty	-ty	1e	-ty,	gra-	1.g	-ty	-ty
.	.	.	1e	a-	-ci-	.	.	.
.	.	.	.	.	.	4a/	.	.
.	.	.	.	.	.	4b\	.	.
=48	=48	=48	=48	=48	=48	=48	=48	=48
1.A	.	.	1e	-vez	-eux	1.cc	.	.
.	.	.	1e	par-	par-	.	.	.
2B\	.	.	.	.	.	4b\	.	.
.	.	.	.	.	.	4a/	.	.
=49	=49	=49	=49	=49	=49	=49	=49	=49
1c	.	.	1e	-ty	-ty	1g	.	.
1F	.	.	1f	Ce-	L'a-	1r	.	.
=50	=50	=50	=50	=50	=50	=50	=50	=50
1r	.	.	0d	-luy	-vez	1f	Ce-	L'a-
[1D	Ce-	L'a-	.	.	.	1a	-luy	-vez
=51	=51	=51	=51	=51	=51	=51	=51	=51
1D]	.	.	1f	qui	plai-	1a	qui	plai-
1G	-luy	-vez	[1e	de	-sau-	1b	de	-sau-
=52	=52	=52	=52	=52	=52	=52	=52	=52
1A	qui	plai-	1e]	.	.	1cc	vous	-ment
1B	de	-sau-	[1d	vous	-ment	2dd\	.	.
.	.	.	.	.	.	2cc\	.	.
=53	=53	=53	=53	=53	=53	=53	=53	=53
1G	vous	-ment	1d]	.	.	2b\	.	.
.	.	.	.	.	.	2a/	.	.
1A	n'a	de-	1c	n'a	de-	[1a	n'a	de-
=54	=54	=54	=54	=54	=54	=54	=54	=54
0d	par-	-par-	0B	par-	-par-	1a]	.	.
.	.	.	.	.	.	1g#i	par-	-par-
=55	=55	=55	=55	=55	=55	=55	=55	=55
0e	-ty	-ty	[0A	-ty	-ty	0a	-ty	-ty
=56	=56	=56	=56	=56	=56	=56	=56	=56
0c	Son	Du	0A]	.	.	1r	.	.
.	.	.	.	.	.	1a	Son	Du
=57	=57	=57	=57	=57	=57	=57	=57	=57
0F	cuer	mal	1r	.	.	1.cc	cuer	mal
.	.	.	1A	Son	Du	.	.	.
.	.	.	.	.	.	4b\	.	.
.	.	.	.	.	.	4a/	.	.
=58	=58	=58	=58	=58	=58	=58	=58	=58
1E	.	.	0B	cuer	mal	1g	.	.
1D	de	qu'il	.	.	.	1f	de	qu'il
=59	=59	=59	=59	=59	=59	=59	=59	=59
1.A	vous	eust	1.c	de	qu'il	1.e	vous	eust
4G/	.	.	2d\	vous	eust	2f/	.	.
4F/	.	.	.	.	.	.	.	.
=60	=60	=60	=60	=60	=60	=60	=60	=60
1E	a-	mis	1e	a-	mis	1g	a-	mis
[1D	-mer	au	[1f	-mer	au	[1a	-mer	au
=61	=61	=61	=61	=61	=61	=61	=61	=61
1D]	.	.	1f]	.	.	1a]	.	.
1E	.	.	[1e	.	.	1g	.	.
=62	=62	=62	=62	=62	=62	=62	=62	=62
1.F	tous-	des-	1e]	.	.	0f	.	.
.	.	.	[1d	tous-	des-	.	.	.
2G/	.	.	.	.	.	.	.	.
=63	=63	=63	=63	=63	=63	=63	=63	=63
0A	.	.	1d]	.	.	0e	tous-	des-
.	.	.	1c#i	.	.	.	.	.
=64	=64	=64	=64	=64	=64	=64	=64	=64
0B-i	-jours,	-soubs.	0d	-jours,	-soubs.	[0dl	-jours,	-soubs.
=65	=65	=65	=65	=65	=65	=65	=65	=65
0Al	.	.	0Dl	.	.	0d]	.	.
==:|!	==:|!	==:|!	==:|!	=||	==:|!	==:|!	==:|!	==:|!
*-	*-	*-	*-	*-	*-	*-	*-	*-
!!!RDF**kern: l=long note in original notation
!!!RDF**kern: i=editorial accidental
!!!ENC: Chris Gage 06-25-2012
!!!END: 2017/03/16/
!!!EED: Jesse Rodin
!!!EEV: 2017/03/16/
!!!ONB: Translated from MusicXML and edited on 2017/03/16/ by Craig Sapp
!!muse2ps: C^@{COM}^i1I0v95,95,150Q16z18c65l2600
